X:1
T:Title
%%score { ( 1 4 ) | ( 2 3 5 ) }
L:1/8
M:6/8
K:F
V:1 treble nm="Grand Piano"
V:4 treble 
V:2 bass 
V:3 bass 
V:5 bass 
V:1
 z3 z2[Q:1/4=100] c | A2 c G2 A | F2 A C2 A | [C^FA]2 [CFA] [CF_A]2 [CF=A] |[M:5/8] [^Fc]3 B2 | %5
[M:1/8] B |[M:3/4] [EB]2 [EB] [EA]2 [EG] | c2 A F2 F | F2 F E2 F |[M:5/8] A3 z2 |[M:1/8] c | %11
[M:3/4] A2 c G2 A | F2 A C2 A | [^Fd]2 [Fc] [FB]2 [FA] |[M:5/8] A3 G2 |[M:1/8] d | %16
[M:3/4] d2 d e2 d | c2 =B _B2 [^FA] | [FA]2 [FG] [EA]2 [EG] |[M:5/8] F-F- F3 |[M:1/8] c | %21
[M:3/4] c6 | c6 | [ce]d [Ac][GB] c[Bd] |[M:5/8] [Ac]3 [FA]2 |[M:1/8] c |[M:3/4] c6 | c2 .G2 z E | %28
 A2 A=B A[DGB] | [CEc]6 | z2 [CFA] .[CFA]3 | z2 [C_EA] .[CEA]3 | [ce]d [Ac][GB] c[Bd] | %33
[M:5/8] [Ac]3 [FA]2 |[M:1/8] z |[M:3/4] [Ff]2 [Ff] [G^ce]2 [Gce] | [Fd]2 [Fd] [Fc]2 [FA] | %37
 .[Fc]2 [A,FA] [CEA]2 [B,EG] |[M:5/8] [A,F]-[A,F]- [A,F]3 |] %39
V:2
 z3 z2 C | A,2 C G,2 A, | F,2 A, C,2 A, | D,2 D, D,2 D, |[M:5/8] z z2[K:treble] G2 |[M:1/8] [G,G] | %6
[M:3/4][K:bass] [C,G,]2 [C,G,] [C,A,]2 [C,B,] | [F,A,F]2 [F,A,F] [F,A,C]2 [F,A,] | %8
 [G,=B,D]2 [G,B,D] [G,B,D]2 [G,B,D] |[M:5/8] z z2[K:treble] G2 |[M:1/8] C | %11
[M:3/4] A,2 C G,2[K:bass] A, | F,2 A, C,2 A, | [D,C]2 [D,C] [D,C]2 [D,C] | %14
[M:5/8][K:treble] [G,C^F]3 [G,B,]2 |[M:1/8] D |[M:3/4] [G,=B,F]2 [G,B,F] [G,B,F]2 [G,B,F] | %17
 [A,CF]2 [_A,DF][K:bass] [G,CE]2 [D,C] | [G,=B,]2 [G,B,] [C,C]2 [C,_B,] | %19
[M:5/8] [F,A,]-[F,A,]- [F,A,]3 |[M:1/8] z |[M:3/4] z2 [F,CF] .[F,CF]3 | z2 [^F,C_E] .[F,CE]3 | %23
 z[K:treble] B .C2 AC |[M:5/8][K:bass] z2 C C2 |[M:1/8] z |[M:3/4] z2 [^F,C_E] .[F,CE]3 | %27
 z2[K:treble] [G,CE] [G,CE]2 [G,C] | [G,DF]2 [G,DF]G F[K:bass]G, | C,4- C,[K:treble]c | %30
 c6[K:bass][K:treble] | c6[K:bass][K:treble] | z B .C2 AC |[M:5/8][K:bass] z2 C[K:treble] C2 | %34
[M:1/8] c |[M:3/4][K:bass] [D,A,]2 [D,A,] [A,,A,]2 [A,,A,] | [B,,F,]2 [=B,,_A,] [C,=A,]2 [C,C] | %37
 z[K:treble] B[K:bass] C, C,2 C, |[M:5/8] F,-F,- F,3 |] %39
V:3
 x6 | x6 | x6 | x6 |[M:5/8] G,-G,- G,3[K:treble] |[M:1/8] x |[M:3/4][K:bass] x6 | x6 | x6 | %9
[M:5/8] C,-C,- C,3[K:treble] |[M:1/8] x |[M:3/4] x5[K:bass] x | x6 | x6 |[M:5/8][K:treble] x5 | %15
[M:1/8] x |[M:3/4] x6 | x3[K:bass] x3 | x6 |[M:5/8] x5 |[M:1/8] x |[M:3/4] x6 | x6 | %23
 z2[K:treble] z .C3 |[M:5/8][K:bass] F,-F,- F,3 |[M:1/8] x |[M:3/4] x6 | x2[K:treble] x4 | %28
 z2 z .[G,D]3[K:bass] | x5[K:treble] x | z2[K:bass] F, F,2[K:treble] d | %31
 z2[K:bass] ^F, F,2[K:treble] d | z2 z .C3 |[M:5/8][K:bass] F,-F,- F,3[K:treble] |[M:1/8] x | %35
[M:3/4][K:bass] x6 | x6 | [C,A,]2[K:treble][K:bass] z2 z2 |[M:5/8] x5 |] %39
V:4
 x6 | x6 | x6 | x6 |[M:5/8] x5 |[M:1/8] x |[M:3/4] x6 | x6 | x6 |[M:5/8] [B,E]-[B,E]- [B,E]3 | %10
[M:1/8] x |[M:3/4] x6 | x6 | x6 |[M:5/8] x5 |[M:1/8] x |[M:3/4] x6 | x6 | x6 |[M:5/8] x5 | %20
[M:1/8] x |[M:3/4] z2 A A2 d | z2 A A2 d | x6 |[M:5/8] x5 |[M:1/8] x |[M:3/4] z2 A A2 c | z2 z G3 | %28
 x6 | x6 | x6 | x6 | x6 |[M:5/8] x5 |[M:1/8] x |[M:3/4] x6 | x6 | x6 |[M:5/8] x5 |] %39
V:5
 x6 | x6 | x6 | x6 |[M:5/8] x3[K:treble] x2 |[M:1/8] x |[M:3/4][K:bass] x6 | x6 | x6 | %9
[M:5/8] x3[K:treble] x2 |[M:1/8] x |[M:3/4] x5[K:bass] x | x6 | x6 |[M:5/8][K:treble] x5 | %15
[M:1/8] x |[M:3/4] x6 | x3[K:bass] x3 | x6 |[M:5/8] x5 |[M:1/8] x |[M:3/4] x6 | x6 | %23
 C,6[K:treble] |[M:5/8][K:bass] x5 |[M:1/8] x |[M:3/4] x6 | x2[K:treble] x4 | x5[K:bass] x | %29
 x5[K:treble] x | x2[K:bass] x3[K:treble] x | x2[K:bass] x3[K:treble] x | C,6 | %33
[M:5/8][K:bass] x3[K:treble] x2 |[M:1/8] x |[M:3/4][K:bass] x6 | x6 | x[K:treble] x[K:bass] x4 | %38
[M:5/8] x5 |] %39

